apps/main-landing/src/app/components/set-up-section/assets/creators-lines-mobile.svg

<svg width="375" height="750" viewBox="0 0 375 750" fill="none" xmlns="http://www.w3.org/2000/svg">
    <g opacity="0.1">
        <path
            d="M128.479 76.129L246.862 76.1291C288.34 76.1291 326.56 98.828 347.277 135.6L406.548 240.842C412.004 250.468 416.005 260.691 418.566 271.182C423.309 290.389 423.28 310.536 418.449 329.698C415.932 339.891 412.033 349.815 406.781 359.202C406.752 359.351 406.636 359.501 406.563 359.65L390.225 388.691L373.843 359.65L347.306 312.506C326.589 275.734 288.369 253.035 246.891 253.035L128.508 253.035C87.0292 253.035 48.8098 275.734 28.0924 312.506L1.55553 359.65L-14.7827 388.691L-31.1354 359.65C-31.2082 359.501 -31.3246 359.351 -31.3537 359.202C-36.6203 349.815 -40.5049 339.891 -43.0655 329.698C-47.8811 310.536 -47.9247 290.389 -43.1818 271.182C-40.5921 260.691 -36.5912 250.468 -31.1354 240.842L28.0924 135.6C48.8098 98.828 87.0292 76.129 128.508 76.129L128.479 76.129Z"
            stroke="#55EB3C" stroke-width="2" stroke-miterlimit="10" />
        <path
            d="M128.478 17.9997L246.861 17.9998C288.339 17.9998 326.559 40.6987 347.276 77.4708L406.548 182.713C421.853 209.859 425.854 241.602 418.565 271.181C416.077 281.374 412.222 291.253 407.042 300.64C406.897 300.939 406.708 301.207 406.562 301.521L390.442 330.144L373.842 359.648L347.305 312.504C326.588 275.732 288.368 253.033 246.89 253.033L128.507 253.033C87.0284 253.033 48.8089 275.732 28.0915 312.504L1.55469 359.648L-15.0163 330.144L-31.1363 301.52C-31.2818 301.222 -31.471 300.953 -31.6165 300.64C-36.8104 291.253 -40.6657 281.359 -43.1827 271.181C-50.4861 241.602 -46.4415 209.859 -31.1363 182.713L28.0915 77.4707C48.8089 40.6987 87.0283 17.9997 128.507 17.9997L128.478 17.9997Z"
            stroke="#55EB3C" stroke-width="2" stroke-miterlimit="10" />
        <path
            d="M128.479 135.108L246.862 135.108C288.34 135.108 326.56 157.807 347.277 194.579L406.548 299.821C406.694 300.09 406.839 300.388 407.028 300.657C412.15 309.894 415.961 319.699 418.449 329.698C423.309 349.054 423.309 369.351 418.449 388.707C415.932 398.9 412.033 408.824 406.781 418.166C406.708 418.017 406.636 417.897 406.563 417.748L390.225 388.707L373.843 359.665L347.306 312.521C326.589 275.749 288.369 253.05 246.891 253.05L128.508 253.05C87.0292 253.05 48.8098 275.749 28.0924 312.521L1.55555 359.665L-14.7826 388.707L-31.1354 417.748C-31.2081 417.897 -31.2809 418.017 -31.3537 418.166C-36.6203 408.809 -40.5049 398.885 -43.0655 388.707C-47.9247 369.35 -47.9247 349.054 -43.0655 329.698C-40.5485 319.699 -36.7222 309.894 -31.6156 300.657C-31.4265 300.388 -31.2809 300.09 -31.1354 299.821L28.0924 194.579C48.8098 157.807 87.0292 135.108 128.508 135.108L128.479 135.108Z"
            stroke="#55EB3C" stroke-width="2" stroke-miterlimit="10" />
        <path
            d="M128.481 194.072L246.864 194.072C288.343 194.072 326.562 216.771 347.28 253.543L390.431 330.161L406.551 358.785C406.624 358.934 406.697 359.053 406.769 359.203C412.036 368.56 415.921 378.514 418.438 388.707C423.297 408.018 423.297 428.329 418.438 447.641C415.921 437.492 412.022 427.568 406.769 418.181C406.697 418.032 406.624 417.913 406.551 417.763L390.213 388.722L373.831 359.68L347.294 312.536C326.577 275.764 288.357 253.065 246.879 253.065L128.496 253.065C87.0176 253.065 48.7981 275.764 28.0807 312.536L1.54383 359.68L-14.7944 388.722L-31.1471 417.763C-31.2199 417.912 -31.2926 418.032 -31.3654 418.181C-36.632 427.568 -40.5166 437.492 -43.0772 447.641C-47.9364 428.329 -47.9364 408.018 -43.0772 388.707C-40.5166 378.514 -36.632 368.56 -31.3654 359.203C-31.2926 359.053 -31.2199 358.934 -31.1471 358.785L-15.0272 330.161L28.0807 253.543C48.7981 216.771 87.0176 194.072 128.496 194.072L128.481 194.072Z"
            stroke="#55EB3C" stroke-width="2" stroke-miterlimit="10" />
        <path
            d="M406.769 536.107C412.036 526.75 415.921 516.826 418.438 506.648C423.297 525.959 423.297 546.27 418.438 565.581C415.921 575.774 412.022 585.699 406.769 595.086C406.74 595.235 406.624 595.384 406.551 595.548L390.213 624.59L373.613 654.094L347.294 700.865C326.577 737.637 288.357 760.336 246.879 760.336L128.496 760.336C87.0175 760.336 48.798 737.637 28.0806 700.865L1.76199 654.094L-14.809 624.59L-31.1618 595.548C-31.2345 595.399 -31.351 595.25 -31.3801 595.086C-36.6467 585.699 -40.5313 575.774 -43.0919 565.581C-47.9511 546.27 -47.9511 525.959 -43.0919 506.648C-40.5313 516.84 -36.6467 526.765 -31.3801 536.107C-31.3364 536.256 -31.2345 536.406 -31.1618 536.57L-14.809 565.611L1.76199 595.115L18.3621 624.62L28.0806 641.886C48.798 678.658 87.0175 701.357 128.496 701.357L246.879 701.357C288.357 701.357 326.577 678.658 347.294 641.886L356.998 624.62L373.598 595.115L390.199 565.611L406.537 536.57C406.609 536.421 406.726 536.271 406.755 536.107L406.769 536.107Z"
            stroke="#55EB3C" stroke-width="2" stroke-miterlimit="10" />
        <path
            d="M406.551 536.57C406.624 536.421 406.74 536.272 406.769 536.108C412.036 545.495 415.921 555.419 418.438 565.567C423.297 584.923 423.297 605.219 418.438 624.575C415.921 634.768 412.022 644.693 406.769 654.035C406.74 654.184 406.624 654.333 406.551 654.497L390.213 683.539L347.294 759.814C326.577 796.586 288.357 819.285 246.879 819.285L128.496 819.285C87.0175 819.285 48.798 796.586 28.0806 759.814L-14.809 683.539L-31.1618 654.497C-31.2345 654.348 -31.351 654.199 -31.3801 654.035C-36.6467 644.678 -40.5313 634.753 -43.0919 624.575C-47.9511 605.219 -47.9511 584.923 -43.0919 565.567C-40.5313 555.419 -37.1124 546.718 -31.8457 537.316C-31.8021 537.466 -31.2345 536.406 -31.1472 536.555L-14.7945 565.597L1.77654 595.101L18.3766 624.605L28.0952 641.872C48.8125 678.644 87.032 701.343 128.51 701.343L246.894 701.343C288.372 701.343 326.591 678.644 347.309 641.872L357.013 624.605L373.613 595.101L390.213 565.597L406.551 536.555L406.551 536.57Z"
            stroke="#55EB3C" stroke-width="2" stroke-miterlimit="10" />
        <path
            d="M373.593 595.116L390.194 565.612L406.532 594.653C406.604 594.803 406.677 594.922 406.75 595.071C412.017 604.428 415.901 614.383 418.418 624.575C423.277 643.887 423.277 664.198 418.418 683.509C415.901 693.702 412.002 703.626 406.75 713.013C406.721 713.163 406.604 713.312 406.532 713.476L347.26 818.793C326.543 855.565 288.323 878.264 246.845 878.264L128.462 878.264C86.9834 878.264 48.7639 855.565 28.0465 818.793L-31.1813 713.476C-31.2541 713.327 -31.3705 713.177 -31.3996 713.013C-36.6662 703.626 -40.5508 693.702 -43.1114 683.509C-47.9707 664.198 -47.9707 643.887 -43.1114 624.575C-40.5508 614.382 -36.6662 604.428 -31.3996 595.071C-31.3269 594.922 -31.2541 594.803 -31.1813 594.653L-14.8286 565.612L1.74244 595.116L18.3425 624.62L28.061 641.887C48.7784 678.659 86.998 701.358 128.476 701.358L246.859 701.358C288.338 701.358 326.557 678.659 347.275 641.887L356.979 624.62L373.579 595.116L373.593 595.116Z"
            stroke="#55EB3C" stroke-width="2" stroke-miterlimit="10" />
        <path
            d="M356.982 624.621L373.582 595.117L390.182 624.576L406.52 653.618C406.593 653.767 406.666 653.886 406.738 654.035C412.005 663.422 415.889 673.347 418.406 683.495C423.266 702.851 423.266 723.147 418.406 742.503C415.846 752.845 411.888 762.919 406.505 772.425L347.234 877.742C326.517 914.514 288.297 937.213 246.819 937.213L128.436 937.213C86.9572 937.213 48.7377 914.514 28.0203 877.742L-31.2076 772.425C-36.5761 762.919 -40.5478 752.845 -43.1375 742.503C-47.9967 723.147 -47.9967 702.851 -43.1375 683.495C-40.5769 673.347 -36.6925 663.422 -31.4259 654.035C-31.3531 653.886 -31.2803 653.767 -31.2076 653.617L-14.8548 624.576L1.71619 595.116L18.3163 624.621L28.0348 641.887C48.7522 678.659 86.9717 701.358 128.45 701.358L246.833 701.358C288.312 701.358 326.531 678.659 347.249 641.887L356.952 624.621L356.982 624.621Z"
            stroke="#55EB3C" stroke-width="2" stroke-miterlimit="10" />
        <path
            d="M347.276 641.887L356.98 624.62L373.58 654.079L390.18 683.539L406.519 712.58C406.591 712.73 406.664 712.849 406.737 712.998C412.003 722.355 415.888 732.31 418.405 742.502C425.854 772.156 421.853 804.093 406.504 831.388L347.233 936.705C326.515 973.477 288.296 996.176 246.817 996.176L128.434 996.176C86.9558 996.176 48.7364 973.477 28.019 936.705L-31.2089 831.388C-46.5869 804.093 -50.5878 772.156 -43.1388 742.502C-40.5782 732.309 -36.6938 722.355 -31.4272 712.998C-31.3545 712.849 -31.2817 712.73 -31.2089 712.58L-14.8562 683.539L1.71484 654.079L18.3149 624.62L28.0334 641.887C48.7508 678.659 86.9704 701.358 128.449 701.358L246.832 701.358C288.31 701.358 326.53 678.659 347.247 641.887L347.276 641.887Z"
            stroke="#55EB3C" stroke-width="2" stroke-miterlimit="10" />
    </g>
    <foreignObject x="93" y="99" width="70" height="70">
        <div xmlns="http://www.w3.org/1999/xhtml"
            style="backdrop-filter:blur(7px);clip-path:url(#bgblur_0_11082_36978_clip_path);height:100%;width:100%"></div>
    </foreignObject>
    <g data-figma-bg-blur-radius="14">
        <path
            d="M128 114C139.046 114 148 122.954 148 134C148 145.046 139.046 154 128 154C116.954 154 108 145.046 108 134C108 122.954 116.954 114 128 114Z"
            fill="white" fill-opacity="0.3" />
        <path
            d="M128 114C139.046 114 148 122.954 148 134C148 145.046 139.046 154 128 154C116.954 154 108 145.046 108 134C108 122.954 116.954 114 128 114Z"
            stroke="url(#paint0_linear_11082_36978)" stroke-width="2" />
        <path
            d="M132.67 123H128.962V137.985C128.962 139.771 127.536 141.238 125.762 141.238C123.987 141.238 122.561 139.771 122.561 137.985C122.561 136.232 123.955 134.797 125.667 134.733V130.971C121.896 131.035 118.854 134.128 118.854 137.985C118.854 141.875 121.959 145 125.793 145C129.628 145 132.733 141.843 132.733 137.985V130.301C134.128 131.322 135.839 131.928 137.645 131.959V128.197C134.857 128.101 132.67 125.806 132.67 123Z"
            fill="#2AD012" />
    </g>
    <foreignObject x="154" y="38" width="70" height="70">
        <div xmlns="http://www.w3.org/1999/xhtml"
            style="backdrop-filter:blur(7px);clip-path:url(#bgblur_1_11082_36978_clip_path);height:100%;width:100%"></div>
    </foreignObject>
    <g data-figma-bg-blur-radius="14">
        <path
            d="M189 53C200.046 53 209 61.9543 209 73C209 84.0457 200.046 93 189 93C177.954 93 169 84.0457 169 73C169 61.9543 177.954 53 189 53Z"
            fill="white" fill-opacity="0.3" />
        <path
            d="M189 53C200.046 53 209 61.9543 209 73C209 84.0457 200.046 93 189 93C177.954 93 169 84.0457 169 73C169 61.9543 177.954 53 189 53Z"
            stroke="url(#paint1_linear_11082_36978)" stroke-width="2" />
        <path fill-rule="evenodd" clip-rule="evenodd"
            d="M180 83H186.75V78.5555H189V80.7778H191.25V83H198V76.3334H195.75V74.1111H193.5V71.8889H195.75V69.6666H198V63H191.25V65.2222H189V67.4445H186.75V63H180V83Z"
            fill="#5FEB3C" />
    </g>
    <foreignObject x="251" y="-14" width="70" height="70">
        <div xmlns="http://www.w3.org/1999/xhtml"
            style="backdrop-filter:blur(7px);clip-path:url(#bgblur_2_11082_36978_clip_path);height:100%;width:100%"></div>
    </foreignObject>
    <g data-figma-bg-blur-radius="14">
        <path
            d="M286 1C297.046 1 306 9.95431 306 21C306 32.0457 297.046 41 286 41C274.954 41 266 32.0457 266 21C266 9.95431 274.954 1 286 1Z"
            fill="white" fill-opacity="0.3" />
        <path
            d="M286 1C297.046 1 306 9.95431 306 21C306 32.0457 297.046 41 286 41C274.954 41 266 32.0457 266 21C266 9.95431 274.954 1 286 1Z"
            stroke="url(#paint2_linear_11082_36978)" stroke-width="2" />
        <path
            d="M297.761 16.1998C297.761 16.1998 297.527 14.5451 296.805 13.8186C295.891 12.8623 294.869 12.8576 294.4 12.8014C291.044 12.5576 286.005 12.5576 286.005 12.5576H285.995C285.995 12.5576 280.956 12.5576 277.6 12.8014C277.131 12.8576 276.109 12.8623 275.195 13.8186C274.473 14.5451 274.244 16.1998 274.244 16.1998C274.244 16.1998 274 18.1451 274 20.0857V21.9045C274 23.8451 274.239 25.7904 274.239 25.7904C274.239 25.7904 274.473 27.4451 275.191 28.1717C276.105 29.1279 277.305 29.0951 277.839 29.1982C279.761 29.3811 286 29.4373 286 29.4373C286 29.4373 291.044 29.4279 294.4 29.1889C294.869 29.1326 295.891 29.1279 296.805 28.1717C297.527 27.4451 297.761 25.7904 297.761 25.7904C297.761 25.7904 298 23.8498 298 21.9045V20.0857C298 18.1451 297.761 16.1998 297.761 16.1998ZM283.52 24.1123V17.367L290.003 20.7514L283.52 24.1123Z"
            fill="#2AD012" />
    </g>
    <foreignObject x="54" y="-14" width="70" height="70">
        <div xmlns="http://www.w3.org/1999/xhtml"
            style="backdrop-filter:blur(7px);clip-path:url(#bgblur_3_11082_36978_clip_path);height:100%;width:100%"></div>
    </foreignObject>
    <g data-figma-bg-blur-radius="14">
        <path
            d="M89 1C100.046 1 109 9.95431 109 21C109 32.0457 100.046 41 89 41C77.9543 41 69 32.0457 69 21C69 9.95431 77.9543 1 89 1Z"
            fill="white" fill-opacity="0.3" />
        <path
            d="M89 1C100.046 1 109 9.95431 109 21C109 32.0457 100.046 41 89 41C77.9543 41 69 32.0457 69 21C69 9.95431 77.9543 1 89 1Z"
            stroke="url(#paint3_linear_11082_36978)" stroke-width="2" />
        <path d="M88 20V16M93 20V16M98 11H80V27H85V31L89 27H94L98 23V11Z" stroke="#2AD012"
            stroke-width="2" stroke-linecap="round" stroke-linejoin="round" />
    </g>
    <defs>
        <clipPath id="bgblur_0_11082_36978_clip_path" transform="translate(-93 -99)">
            <path
                d="M128 114C139.046 114 148 122.954 148 134C148 145.046 139.046 154 128 154C116.954 154 108 145.046 108 134C108 122.954 116.954 114 128 114Z" />
        </clipPath>
        <clipPath id="bgblur_1_11082_36978_clip_path" transform="translate(-154 -38)">
            <path
                d="M189 53C200.046 53 209 61.9543 209 73C209 84.0457 200.046 93 189 93C177.954 93 169 84.0457 169 73C169 61.9543 177.954 53 189 53Z" />
        </clipPath>
        <clipPath id="bgblur_2_11082_36978_clip_path" transform="translate(-251 14)">
            <path
                d="M286 1C297.046 1 306 9.95431 306 21C306 32.0457 297.046 41 286 41C274.954 41 266 32.0457 266 21C266 9.95431 274.954 1 286 1Z" />
        </clipPath>
        <clipPath id="bgblur_3_11082_36978_clip_path" transform="translate(-54 14)">
            <path
                d="M89 1C100.046 1 109 9.95431 109 21C109 32.0457 100.046 41 89 41C77.9543 41 69 32.0457 69 21C69 9.95431 77.9543 1 89 1Z" />
        </clipPath>
        <linearGradient id="paint0_linear_11082_36978" x1="128" y1="113" x2="128" y2="155"
            gradientUnits="userSpaceOnUse">
            <stop stop-color="#5FEB3C" stop-opacity="0" />
            <stop offset="1" stop-color="#5FEB3C" />
        </linearGradient>
        <linearGradient id="paint1_linear_11082_36978" x1="189" y1="52" x2="189" y2="94"
            gradientUnits="userSpaceOnUse">
            <stop stop-color="#5FEB3C" stop-opacity="0" />
            <stop offset="1" stop-color="#5FEB3C" />
        </linearGradient>
        <linearGradient id="paint2_linear_11082_36978" x1="286" y1="0" x2="286" y2="42"
            gradientUnits="userSpaceOnUse">
            <stop stop-color="#5FEB3C" stop-opacity="0" />
            <stop offset="1" stop-color="#5FEB3C" />
        </linearGradient>
        <linearGradient id="paint3_linear_11082_36978" x1="89" y1="0" x2="89" y2="42"
            gradientUnits="userSpaceOnUse">
            <stop stop-color="#5FEB3C" stop-opacity="0" />
            <stop offset="1" stop-color="#5FEB3C" />
        </linearGradient>
    </defs>
</svg>

<svg width="375" height="750" fill="none" xmlns="http://www.w3.org/2000/svg"><g opacity=".1" stroke="#55EB3C" stroke-width="2" stroke-miterlimit="10"><path d="M128.48 76.13h118.383c41.478 0 79.698 22.699 100.415 59.471l59.271 105.242a118.462 118.462 0 0 1 12.018 30.34c4.743 19.206 4.713 39.353-.117 58.515a118.694 118.694 0 0 1-11.668 29.505c-.029.149-.145.298-.218.447l-16.338 29.042-16.382-29.042-26.537-47.144c-20.717-36.772-58.937-59.471-100.415-59.471H128.509c-41.479 0-79.698 22.699-100.416 59.471L1.557 359.65l-16.339 29.042-16.352-29.042c-.073-.149-.19-.298-.219-.447-5.266-9.387-9.15-19.312-11.712-29.505a121.201 121.201 0 0 1-.116-58.516c2.59-10.491 6.59-20.714 12.046-30.339L28.094 135.6C48.811 98.828 87.03 76.13 128.51 76.13h-.029Z"/><path d="M128.479 18h118.383c41.479 0 79.698 22.7 100.416 59.471l59.271 105.242c15.305 27.147 19.306 58.889 12.017 88.468-2.488 10.193-6.343 20.073-11.522 29.46-.146.298-.335.567-.48.88l-16.12 28.624-16.601 29.504-26.536-47.144c-20.718-36.772-58.937-59.471-100.416-59.471H128.508c-41.478 0-79.698 22.699-100.415 59.471L1.556 359.649l-16.57-29.504-16.12-28.624c-.146-.299-.335-.567-.481-.88a120.598 120.598 0 0 1-11.566-29.46c-7.304-29.579-3.26-61.321 12.046-88.468L28.093 77.471C48.81 40.7 87.03 18.001 128.508 18.001h-.029Z"/><path d="M128.48 135.108h118.383c41.478 0 79.698 22.699 100.415 59.471l59.272 105.242c.145.269.291.567.48.836a119.445 119.445 0 0 1 11.421 29.041 121.259 121.259 0 0 1 0 59.009 117.702 117.702 0 0 1-11.668 29.459c-.073-.149-.146-.269-.219-.418l-16.338-29.041-16.382-29.042-26.537-47.144c-20.717-36.772-58.936-59.471-100.415-59.471H128.509c-41.478 0-79.698 22.699-100.415 59.471L1.557 359.665l-16.338 29.042-16.353 29.041c-.073.149-.145.269-.218.418-5.267-9.357-9.151-19.281-11.712-29.459a121.252 121.252 0 0 1 0-59.009 121.311 121.311 0 0 1 11.45-29.041c.189-.269.335-.567.48-.836l59.228-105.242c20.717-36.772 58.937-59.471 100.415-59.471h-.029Z"/><path d="M128.48 194.071h118.383c41.479 0 79.698 22.699 100.416 59.471l43.151 76.619 16.12 28.623c.073.149.146.269.218.418a117.666 117.666 0 0 1 11.669 29.504 120.956 120.956 0 0 1 0 58.934 119.033 119.033 0 0 0-11.669-29.459c-.072-.15-.145-.269-.218-.418l-16.338-29.042-16.382-29.041-26.537-47.144c-20.717-36.772-58.937-59.471-100.415-59.471H128.495c-41.478 0-79.698 22.699-100.415 59.471L1.543 359.68l-16.338 29.041-16.353 29.042c-.073.149-.146.268-.218.418-5.267 9.387-9.152 19.311-11.712 29.459a120.948 120.948 0 0 1 0-58.934c2.56-10.193 6.445-20.147 11.712-29.504.072-.149.145-.269.218-.418l16.12-28.623 43.108-76.619c20.717-36.772 58.937-59.471 100.415-59.471h-.015ZM406.768 536.107a117.608 117.608 0 0 0 11.669-29.46 120.956 120.956 0 0 1 0 58.934 118.652 118.652 0 0 1-11.669 29.504c-.029.149-.145.299-.218.463l-16.338 29.041-16.6 29.505-26.319 46.77c-20.717 36.772-58.937 59.471-100.415 59.471H128.495c-41.478 0-79.698-22.699-100.415-59.471L1.76 654.093l-16.571-29.504-16.353-29.041c-.072-.15-.189-.299-.218-.463-5.267-9.387-9.151-19.311-11.712-29.504a120.948 120.948 0 0 1 0-58.934c2.56 10.193 6.445 20.117 11.712 29.46.044.149.146.298.218.462l16.353 29.042 16.571 29.504 16.6 29.504 9.719 17.267c20.717 36.772 58.937 59.471 100.415 59.471h118.383c41.478 0 79.698-22.699 100.415-59.471l9.704-17.267 16.6-29.504 16.601-29.504 16.338-29.042c.072-.149.189-.298.218-.462h.014Z"/><path d="M406.55 536.57c.073-.149.189-.299.218-.463a118.483 118.483 0 0 1 11.669 29.46 121.255 121.255 0 0 1 0 59.008 117.667 117.667 0 0 1-11.669 29.459c-.029.15-.145.299-.218.463l-16.338 29.042-42.919 76.275c-20.717 36.772-58.937 59.471-100.415 59.471H128.495c-41.478 0-79.698-22.699-100.415-59.471l-42.89-76.276-16.353-29.041c-.072-.149-.189-.299-.218-.463-5.267-9.357-9.151-19.281-11.712-29.459a121.252 121.252 0 0 1 0-59.009c2.56-10.148 5.98-18.848 11.246-28.25.044.149.612-.91.699-.761l16.352 29.041 16.572 29.505 16.6 29.504 9.718 17.266c20.718 36.772 58.937 59.471 100.415 59.471l118.384.001c41.478 0 79.697-22.699 100.415-59.471l9.704-17.267 16.6-29.504 16.6-29.505 16.338-29.041v.015Z"/><path d="m373.596 595.116 16.6-29.504 16.338 29.042c.073.149.146.268.218.418a117.625 117.625 0 0 1 11.668 29.504 120.931 120.931 0 0 1 0 58.934 118.649 118.649 0 0 1-11.668 29.504c-.029.149-.145.298-.218.462l-59.271 105.317c-20.718 36.772-58.937 59.471-100.416 59.471H128.464c-41.478 0-79.698-22.699-100.415-59.471L-31.18 713.476c-.073-.149-.19-.298-.218-.462-5.267-9.387-9.151-19.312-11.712-29.504a120.95 120.95 0 0 1 0-58.934c2.56-10.193 6.445-20.147 11.712-29.504.073-.15.145-.269.218-.418l16.353-29.042 16.57 29.504 16.6 29.505 9.72 17.266C48.78 678.659 87 701.358 128.478 701.358h118.383c41.478 0 79.698-22.699 100.415-59.471l9.704-17.266 16.6-29.505h.015Z"/><path d="m356.982 624.62 16.6-29.504 16.6 29.459 16.338 29.042c.073.149.146.269.218.418a118.488 118.488 0 0 1 11.668 29.459 121.235 121.235 0 0 1 0 59.009 118.446 118.446 0 0 1-11.901 29.922l-59.271 105.316c-20.717 36.772-58.937 59.471-100.415 59.471H128.436c-41.479 0-79.698-22.699-100.416-59.471l-59.228-105.316a120.202 120.202 0 0 1-11.93-29.922 121.254 121.254 0 0 1 0-59.009c2.561-10.148 6.445-20.072 11.712-29.459.073-.149.146-.269.218-.418l16.353-29.042 16.571-29.459 16.6 29.504 9.719 17.267c20.717 36.772 58.937 59.471 100.415 59.471h118.383c41.479 0 79.698-22.699 100.416-59.471l9.703-17.267h.03Z"/><path d="m347.278 641.887 9.704-17.267 16.6 29.459 16.6 29.46 16.338 29.041c.073.15.146.269.218.418 5.267 9.357 9.151 19.312 11.668 29.504 7.449 29.654 3.448 61.591-11.901 88.886l-59.271 105.317c-20.717 36.772-58.937 59.471-100.415 59.471H128.436c-41.479 0-79.698-22.699-100.416-59.471l-59.227-105.317c-15.379-27.295-19.38-59.232-11.93-88.886 2.56-10.193 6.445-20.147 11.711-29.504.073-.149.146-.268.218-.418l16.353-29.041 16.571-29.46 16.6-29.459 9.719 17.267c20.717 36.772 58.937 59.471 100.415 59.471h118.383c41.479 0 79.698-22.699 100.416-59.471h.029Z"/></g><path d="M108 134c0-11.046 8.954-20 20-20s20 8.954 20 20-8.954 20-20 20-20-8.954-20-20Z" fill="#fff" fill-opacity=".3"/><path d="M108 134c0-11.046 8.954-20 20-20s20 8.954 20 20-8.954 20-20 20-20-8.954-20-20Z" stroke="url(#a)" stroke-width="2"/><path d="M134 124h-3a5.004 5.004 0 0 0-3.536 1.464A5.004 5.004 0 0 0 126 129v3h-3v4h3v8h4v-8h3l1-4h-4v-3a.997.997 0 0 1 1-1h3v-4Z" stroke="#2AD012" stroke-width="2" stroke-linecap="round" stroke-linejoin="round"/><path d="M69 21C69 9.954 77.954 1 89 1s20 8.954 20 20-8.954 20-20 20-20-8.954-20-20Z" fill="#fff" fill-opacity=".3"/><path d="M69 21C69 9.954 77.954 1 89 1s20 8.954 20 20-8.954 20-20 20-20-8.954-20-20Z" stroke="url(#b)" stroke-width="2"/><path d="M88 20v-4m5 4v-4m5-5H80v16h5v4l4-4h5l4-4V11Z" stroke="#2AD012" stroke-width="2" stroke-linecap="round" stroke-linejoin="round"/><path d="M169 73c0-11.046 8.954-20 20-20s20 8.954 20 20-8.954 20-20 20-20-8.954-20-20Z" fill="#fff" fill-opacity=".3"/><path d="M169 73c0-11.046 8.954-20 20-20s20 8.954 20 20-8.954 20-20 20-20-8.954-20-20Z" stroke="url(#c)" stroke-width="2"/><path fill-rule="evenodd" clip-rule="evenodd" d="M180 83h6.75v-4.445H189v2.223h2.25V83H198v-6.667h-2.25v-2.222h-2.25V71.89h2.25v-2.222H198V63h-6.75v2.222H189v2.223h-2.25V63H180v20Z" fill="#5FEB3C"/><path d="M266 21c0-11.046 8.954-20 20-20s20 8.954 20 20-8.954 20-20 20-20-8.954-20-20Z" fill="#fff" fill-opacity=".3"/><path d="M266 21c0-11.046 8.954-20 20-20s20 8.954 20 20-8.954 20-20 20-20-8.954-20-20Z" stroke="url(#d)" stroke-width="2"/><path d="M297.761 16.2s-.234-1.655-.956-2.381c-.914-.957-1.936-.961-2.405-1.017-3.356-.244-8.395-.244-8.395-.244h-.01s-5.039 0-8.395.244c-.469.056-1.491.06-2.405 1.017-.722.726-.951 2.381-.951 2.381S274 18.145 274 20.086v1.819c0 1.94.239 3.886.239 3.886s.234 1.654.952 2.38c.914.957 2.114.924 2.648 1.027 1.922.183 8.161.24 8.161.24s5.044-.01 8.4-.249c.469-.056 1.491-.06 2.405-1.017.722-.727.956-2.381.956-2.381s.239-1.941.239-3.886v-1.819c0-1.94-.239-3.886-.239-3.886Zm-14.241 7.913v-6.746l6.483 3.385-6.483 3.36Z" fill="#2AD012"/><defs><linearGradient id="a" x1="128" y1="113" x2="128" y2="155" gradientUnits="userSpaceOnUse"><stop stop-color="#5FEB3C" stop-opacity="0"/><stop offset="1" stop-color="#5FEB3C"/></linearGradient><linearGradient id="b" x1="89" y1="0" x2="89" y2="42" gradientUnits="userSpaceOnUse"><stop stop-color="#5FEB3C" stop-opacity="0"/><stop offset="1" stop-color="#5FEB3C"/></linearGradient><linearGradient id="c" x1="189" y1="52" x2="189" y2="94" gradientUnits="userSpaceOnUse"><stop stop-color="#5FEB3C" stop-opacity="0"/><stop offset="1" stop-color="#5FEB3C"/></linearGradient><linearGradient id="d" x1="286" y1="0" x2="286" y2="42" gradientUnits="userSpaceOnUse"><stop stop-color="#5FEB3C" stop-opacity="0"/><stop offset="1" stop-color="#5FEB3C"/></linearGradient></defs></svg>
